!!!COM: Bach, Johann Sebastian
!!!CDT: 1685/3//-1750/7/28/
!!!OTL@@DE: O Mensch, bewein' dein' Suende gross
!!!AGN: 4-Part Chorale
!!!SCT: BH 306
!!!SCT: BWV 402
**harm	**root	**kern	**kern	**kern	**kern
!	!	!bass	!tenor	!alto	!soprno
*	*Iorgan	*Iorgan	*Iorgan	*Iorgan	*Iorgan
*M4/4	*M4/4	*M4/4	*M4/4	*M4/4	*M4/4
*met(c)	*met(c)	*met(c)	*met(c)	*met(c)	*met(c)
*MM60	*MM60	*MM60	*MM60	*MM60	*MM60
*k[b-e-]	*k[b-e-]	*k[b-e-]	*k[b-e-]	*k[b-e-]	*k[b-e-]
*B-:	*B-:	*B-:	*B-:	*B-:	*B-:
*>[A,A,B]	*>[A,A,B]	*>[A,A,B]	*>[A,A,B]	*>[A,A,B]	*>[A,A,B]
*>A	*>A	*>A	*>A	*>A	*>A
I	4EE-	4BB-	4D	4F	4B-
=1	=1	=1	=1	=1	=1
IV	4AA-	8E-	4E-	4.G	4B-
.	.	8D	.	.	.
ii	4FF	4C	4E-	.	4c
.	.	.	.	16F#	.
.	.	.	.	16G	.
Vb/vi	4GG	4FF#	4D	4.A	8d
.	.	.	.	.	8c
vi	4CC	[4GG	4D	.	4B-
.	.	.	.	16G	.
.	.	.	.	16A	.
=2	=2	=2	=2	=2	=2
vi	4CC	4GG]	8G	4.B-	4d
.	.	.	8F	.	.
viioD7/iii	4FF#	4CC#	4E	.	4e
.	.	.	.	8A	.
iii;	4GG;	4DD;	4D;	4A;	4f;
iii	4GG	4D	4A	[4d	4f
=3	=3	=3	=3	=3	=3
IVb	8AA-	8GG	8B-	8d]	4e-y
V7b	8BB-	8AA	8F	4c	.
I	4EE-	4BB-	4F	.	4d
.	.	.	.	4B-	.
V7b/V	8FF	8EE	8G	.	4c
V7b/vi	8GG	8FF#	8D	8A	.
vi	4CC	[4GG	4D	8G	8B-
.	.	.	.	8A	8c
=4	=4	=4	=4	=4	=4
vi	4CC	4GG]	8G	4B-	4d
.	.	.	8F	.	.
V7/V	4FF	4CC	4G	4B-	4e
V;	4BB-;	4FF;	4F;	4A;	4f;
ii	4FF	8C	[4E-y	[4c	4g
.	.	8BB-	.	.	.
=5	=5	=5	=5	=5	=5
V7b	8BB-	8AA	8E-]	8c]	4f
Ic	8EE-	8FF	4D	16B-	.
.	.	.	.	16A	.
IVb	8AA-	8GG	.	8B-	4e-
V7b	8BB-	8AA	8C	8F	.
I	4EE-	8BB-	4.BB-	8F	4d
.	.	8AA	.	16B-	.
.	.	.	.	16A	.
IVb	4AA-	8GG	.	[4B-	4e-
.	.	8FF	8F	.	.
!!linebreak: 3
=6	=6	=6	=6	=6	=6
ii7b	8FF	8EE-	8G	8B-]	2c
viib	8DD	8CC	8E-	16A	.
.	.	.	.	16G	.
V	4BB-	4FF	8C	4A	.
.	.	.	8F	.	.
I;	4EE-;	4BBB-;	4D;	4F;	4B-;
=:|!	=:|!	=:|!	=:|!	=:|!	=:|!
*>B	*>B	*>B	*>B	*>B	*>B
I	8EE-	8BBB-	8D	8f	4b-
ii7	8FF	8CC	8E-	8e-	.
=7	=7	=7	=7	=7	=7
Ib	4EE-	4DD	4F	4d	4b-
V7b/V	4FF	4EE	[4G	4c	4b-
V	4BB-	8FF	8G]	4c	4a
.	.	8GG	16F	.	.
.	.	.	16E-y	.	.
V7d/IV	4EE-	4AA-	4D	4B-	4f
=8	=8	=8	=8	=8	=8
IVb	4AA-	8GG	4E-	8B-	4g
.	.	8FF	.	8A-	.
IV	4AA-	4EE-	4E-	4B-	4g
I;	4EE-;	4BB-;	4F;	4B-;	4d;
vi	4CC	8GG	4G	4d	4b-
.	.	8FF	.	.	.
=9	=9	=9	=9	=9	=9
V7b/V	4FF	8EE	8G	4c	4b-
.	.	8DD	8F	.	.
V7/V	4FF	4CC	4E	4c	4b-
V	4BB-	8FF	8F	4c	4a
.	.	8GG	8E	.	.
Vb	4BB-	4AA	[4F	4c	4f
=10	=10	=10	=10	=10	=10
V7/II	4CC	4GG	8F]	4d	4g
.	.	.	16E	.	.
.	.	.	16D	.	.
II	4FF	4C	4E	8c	4g
.	.	.	.	8B-	.
V;	4BB-;	4FF;	4F;	4A;	4f;
I	4EE-	[4BB-	4F	8B-	8d
.	.	.	.	8c	8e-
=11	=11	=11	=11	=11	=11
I	4EE-	8BB-]	4B-	4d	4f
.	.	8AA-	.	.	.
IVb	4AA-	8GG	4B-	4e-	4g
.	.	8AA	.	.	.
V/IV	4EE-	4BB-	8B-	4d	4f
.	.	.	4A-	.	.
Vb/ii	4CC	4BB	.	[4d	4d
.	.	.	8G	.	.
!!linebreak: 3
=12	=12	=12	=12	=12	=12
ii	4FF	4C	4G	8d]	2e-
.	.	.	.	16c	.
.	.	.	.	16B-	.
viiD7/vi	4BB	4FF#	8A	8c	.
.	.	.	8c	8A	.
vi;	4CC;	4GG;	4G;	4B-;	4d;
IV/IV	4DD-	[4AA-	4E-	4c	4c
=13	=13	=13	=13	=13	=13
V7d/IV	4EE-	4AA-]	4F	4B-	4d
IV	4AA-	4GG	4G	4B-	4e-
V	4BB-	8FF	4A	4c	4f
.	.	8EE-	.	.	.
iii	4GG	4DD	8AA	4d	4f
.	.	.	8BB	.	.
=14	=14	=14	=14	=14	=14
ii	4FF	4CC	4C	8G	4e-
.	.	.	.	8A	.
Ib	4EE-	8DD	4F	[4B-	4d
.	.	8EE-	.	.	.
V;	4BB-;	4FF;	4F;	8B-]	4c;
.	.	.	.	8A;	.
V	4BB-	4F	4A	4c	4f
=15	=15	=15	=15	=15	=15
Vb/V	4FF	4E	4G	4c	4g
V7c	4BB-	4E-	[4F	4c	4a
Ib	4EE-	4.D	8F]	8d	4b-
.	.	.	8G	8e	.
iii	4GG	.	4A	[4f	4a
.	.	8C	.	.	.
=16	=16	=16	=16	=16	=16
V7b/ii	4CC	4BB	4D	4f]	4g
V7b/iii	4DD	4C#	4A	4e	4g
iii;	4GG;	4D;	4A;	4d;	4f;
IV	4AA-	[4E-y	4G	4B-	4B-
=17	=17	=17	=17	=17	=17
V7d	4BB-	8E-]	4F	4A	4c
.	.	8D	.	.	.
I	4EE-	8C	4.F	4B-	4d
.	.	8BB-	.	.	.
V7b	8BB-	8AA	.	8c	4e-
V7	8BB-	8FF	8C	8A	.
I	8EE-	8BB-	8D	8F	4d
Ib	8EE-	8DD	8F	[8B-	.
=18	=18	=18	=18	=18	=18
ii7b	8FF	4EE-	8G	8B-]	2c
viib	8DD	.	8E-	16A	.
.	.	.	.	16G	.
V	4BB-	4FF	8C	4A	.
.	.	.	16F	.	.
.	.	.	16E-	.	.
I;	4EE-;	4BBB-;	4D;	4F;	4B-;
==	==	==	==	==	==
*-	*-	*-	*-	*-	*-
!!chor2scor: -l 3 -s 0.6 -o %b.pmx
!!!YEC: Copyright 1994, David Huron
!!!YEC: Changes/Additions 2001 by Craig Stuart Sapp
!!!YEN: United States of America
!!!SMA: 371 Bach Chorales, edited by Ludwig Erk, C.F. Peters
!!!PDT: 1850, 1865
!!!ONB: Harmony and Root analysis done manually
